X:11
T: Das Dollerlied
N: A0374C
O: Europa, Mitteleuropa, Deutschland
N: M. Praetorius, Mus. Sion. 1610. VIII. 215. Vgl. Souterliedekens
N: 1540 ad Ps. 82.
R: Romanze, Ballade, Lied, Personenlied
M: 4/4
L: 1/4
K: D
d2 | d=cBA | G2A2B=c2c | d2B2A2z
d | d=cBA | G2A2B=c2c | d2B2A2z
A | AGAB | =c2c2cA2A | GG=F4=c2
c2cc2Ac2 | A2A2=c2cd- | ddAB=c2BA- | A=FG2E4 | D6

